!!!OTL: GUTEN ABEND HERR SPIELMANN
!!!ARE: Europa, Mitteleuropa, Deutschland, Oberdiebach am Rhein
!!!SCT: K2167
!!!YEM: Copyright 1995, estate of Helmut Schaffrath.
**kern
*ICvox
*Ivox
*M2/4
*k[f#]
*G:
{16dd
16dd
=1
4dd
8b
8dd
=2
4dd
8b}
{16b
16dd
=3
4cc
8a
8cc
=4
4b
8r}
{16dd
16dd
=5
4dd
8b
8dd
=6
4dd
8b}
{16b
16dd
=7
4cc
8a
8cc
=8
4b
8r}
{8b
=9
4cc
8cc
8a
=10
4cc
8cc}
{8a
=11
4cc
8cc
16cc
16ee
=12
4a
8ee}
{8b
=13
4cc
8cc
8a
=14
4dd
4dd}
=15
{4dd
8ee
8ff#
=16
4gg
4r}
=17
{8dd
16dd
16dd
8dd
8dd
=18
4gg
8r}
==
!!!AGN: Kinder - Lied, Reigen, Tanz - Spiel
!!!ONB: ESAC (Essen Associative Code) Database: KINDER
!!!AMT: simple duple
!!!AIN: vox
!!!EED: Helmut Schaffrath
!!!EEV: 1.0
*-
